logos/airbnb.svg

<?xml version="1.0" encoding="UTF-8"?>
<svg width="512px" height="161px" viewBox="0 0 512 161" version="1.1" xmlns="http://www.w3.org/2000/svg" preserveAspectRatio="xMidYMid">
    <title>Airbnb</title>
    <g>
        <path d="M147.508204,113.995796 C146.78789,111.973898 145.946102,110.017757 145.145475,108.205176 C143.912659,105.417286 142.621616,102.623875 141.372737,99.9238274 L141.273851,99.7094902 C130.135843,75.5897725 118.181145,51.1402667 105.742557,27.0406776 L105.214494,26.0174306 C103.945537,23.5564674 102.633914,21.0118776 101.287655,18.511611 C99.6914196,15.347451 97.754353,12.3663059 95.5110902,9.62098196 C92.9857255,6.60836392 89.8288941,4.18545945 86.2634667,2.52312596 C82.6980392,0.860792471 78.810353,0 74.8749804,0 C70.9396079,0 67.0524236,0.862755137 63.4869961,2.52598714 C59.9220706,4.18921914 56.7657412,6.61293176 54.2413804,9.62615216 C52.0006275,12.3721286 50.0647153,15.3526212 48.4679279,18.5152251 C47.1100738,21.0379294 45.786102,23.6061114 44.505851,26.0897631 L44.0155357,27.0404267 C31.5763953,51.1417725 19.6217977,75.5912784 8.48389023,99.7089882 L8.32160631,100.059859 C7.09441258,102.716235 5.82560631,105.462965 4.61338608,108.204173 C3.812342,110.015247 2.97165306,111.969882 2.25056631,113.9968 C0.185255189,119.518871 -0.472867101,125.466604 0.335359032,131.305412 C1.19246811,137.205961 3.57902059,142.781239 7.25865415,147.478086 C10.9382777,152.174933 15.7833538,155.830714 21.3139577,158.083514 C25.4913255,159.773616 29.9579232,160.63749 34.4654306,160.627537 C35.8813616,160.627537 37.2960879,160.544627 38.7025318,160.380988 C44.403451,159.654651 49.9017287,157.799404 54.8748549,154.924674 C61.3983373,151.259859 67.841004,145.888878 74.8789961,138.213898 C81.9169883,145.888878 88.3596549,151.259859 94.8831373,154.924674 C99.8560628,157.799906 105.354541,159.654651 111.05531,160.380988 C112.461804,160.544627 113.876831,160.627537 115.292863,160.627537 C119.799969,160.63749 124.265914,159.773616 128.443231,158.083514 C133.973835,155.830714 138.819263,152.174933 142.499137,147.478086 C146.179012,142.781239 148.565835,137.206463 149.423184,131.305412 C150.230337,125.466102 149.572267,119.518369 147.508204,113.995796 Z M74.8789961,122.36298 C66.1664628,111.319341 60.5756236,101.06378 58.6139608,92.4661961 C57.8103216,89.2446118 57.6205804,85.901051 58.0547765,82.6091922 C58.3976157,80.1962667 59.2840785,77.8922667 60.647404,75.8703686 C62.3249569,73.6948706 64.4808785,71.9329882 66.9485177,70.7207529 C69.4161569,69.5090196 72.1297569,68.8785569 74.88,68.8785569 C77.6307451,68.8785569 80.3438432,69.5095216 82.8114824,70.7222588 C85.2791216,71.9344941 87.4345412,73.6963765 89.1120941,75.8718745 C90.4754196,77.8947765 91.3618824,80.1987765 91.7047216,82.6122039 C92.1379138,85.9055686 91.9476706,89.2501333 91.1425255,92.4727216 C89.1788549,101.069302 83.5895216,111.321851 74.8789961,122.36298 Z M139.246933,129.851733 C138.647592,133.977349 136.978573,137.875576 134.406024,141.159404 C131.832973,144.443733 128.445239,147.00022 124.578133,148.575373 C120.667859,150.141992 116.424282,150.697161 112.241945,150.189176 C107.894463,149.628988 103.704596,148.1984 99.9248314,145.982243 C94.118149,142.72 88.2401883,137.711937 81.625851,130.365239 C92.1554824,117.381522 98.7306667,105.414275 101.165176,94.7551372 C102.260957,90.2726274 102.498384,85.6239686 101.865412,81.0541176 C101.291169,77.1172392 99.8294589,73.3615686 97.5907138,70.0702118 C94.9679687,66.5193412 91.546604,63.6325647 87.6021961,61.6432941 C83.6572863,59.6540235 79.2997647,58.6174745 74.88,58.6174745 C70.4607373,58.6174745 66.1027138,59.6535216 62.157804,61.6422902 C58.2128941,63.6310588 54.7915294,66.5173333 52.1687843,70.0682039 C49.9303906,73.3585569 48.4688816,77.1132235 47.8940863,81.049098 C47.2608126,85.6174431 47.4970353,90.2635922 48.5903561,94.7445961 C51.0233098,105.408251 57.5989961,117.37851 68.1321412,130.366243 C61.517804,137.711937 55.6398432,142.72 49.8331106,145.982745 C46.0532957,148.1984 41.8638808,149.62949 37.5162981,150.189176 C33.3334589,150.697161 29.0898824,150.141992 25.1793569,148.575373 C21.3123012,147.00022 17.9246181,144.443733 15.3518683,141.159906 C12.7791687,137.875576 11.110651,133.977349 10.511611,129.851733 C9.93541023,125.657851 10.4257757,121.386667 11.937531,117.431718 C12.5121757,115.816408 13.1846526,114.231216 14.0177569,112.347859 C15.1963608,109.683451 16.4470965,106.975373 17.6569224,104.356643 L17.8194071,104.004769 C28.8950212,80.0220863 40.78336,55.7086118 53.1546353,31.7386792 L53.6470589,30.7844016 C54.9064785,28.3407561 56.2090667,25.8141867 57.5232,23.3728 C58.7801098,20.8565208 60.301553,18.4807404 62.0619294,16.2856157 C63.6215216,14.4014055 65.5791687,12.8843796 67.7943216,11.8429616 C70.0099765,10.8014933 72.4284236,10.2611827 74.8769883,10.2611827 C77.325553,10.2611827 79.744502,10.8007404 81.9596549,11.8418071 C84.1753098,12.8828737 86.1329569,14.3995984 87.693051,16.2835576 C89.4544314,18.4770259 90.9763765,20.8520031 92.2322824,23.368182 C93.5343687,25.7878337 94.8254118,28.2916643 96.0742902,30.7128722 L96.6033569,31.7397333 C108.97418,55.7071059 120.862118,80.0200784 131.938886,104.006776 L132.038776,104.22262 C133.269584,106.885522 134.542055,109.637773 135.740235,112.348863 C136.574494,114.234729 137.248126,115.821427 137.821365,117.430714 C139.332267,121.386165 139.822682,125.657349 139.246933,129.851733 Z" fill="#FF385C"></path>
        <path d="M209.240847,121.070933 C205.229678,121.070933 201.539765,120.266792 198.170102,118.659012 C194.800941,117.051231 191.913161,114.799937 189.345631,111.905631 C186.778604,109.011827 184.853584,105.635137 183.409443,101.937192 C181.965302,98.0781176 181.323294,93.8977882 181.323294,89.395702 C181.323294,84.8936157 182.125929,80.5521569 183.569569,76.6930823 C185.01371,72.8345098 187.099357,69.4578196 189.666886,66.4028863 C192.233914,63.5085804 195.282322,61.0966588 198.81211,59.4888784 C202.341898,57.881098 206.032314,57.0769569 210.203608,57.0769569 C214.214776,57.0769569 217.744565,57.881098 220.9536,59.6495059 C224.162635,61.2577882 226.729663,63.6692078 228.81531,66.7241412 L229.29669,58.8458667 L244.057851,58.8458667 L244.057851,119.462651 L229.29669,119.462651 L228.81531,110.619608 C226.729663,113.835169 224.002008,116.407718 220.47222,118.337255 C217.263184,120.106165 213.412643,121.070933 209.240847,121.070933 Z M213.09189,106.599906 C215.979671,106.599906 218.546698,105.795765 220.9536,104.348612 C223.199875,102.740831 224.964769,100.650667 226.40891,98.0781176 C227.692424,95.5055686 228.333929,92.4506353 228.333929,89.0739451 C228.333929,85.6972549 227.692424,82.6423216 226.40891,80.0697725 C225.125396,77.4972235 223.199875,75.4070588 220.9536,73.7992784 C218.707326,72.1909961 215.979671,71.5479843 213.09189,71.5479843 C210.203608,71.5479843 207.63658,72.3521255 205.229678,73.7992784 C202.983906,75.4070588 201.219012,77.4972235 199.774871,80.0697725 C198.491357,82.6423216 197.849349,85.6972549 197.849349,89.0739451 C197.849349,92.4506353 198.491357,95.5055686 199.774871,98.0781176 C201.058384,100.650667 202.983906,102.740831 205.229678,104.348612 C207.63658,105.795765 210.203608,106.599906 213.09189,106.599906 Z M269.247749,42.445302 C269.247749,44.2139608 268.926996,45.8218918 268.124361,47.1081663 C267.322227,48.394491 266.199341,49.5199874 264.7552,50.3240784 C263.311059,51.1277176 261.706792,51.4494745 260.102526,51.4494745 C258.497757,51.4494745 256.89349,51.1277176 255.449349,50.3240784 C254.005208,49.5199874 252.882322,48.394491 252.080188,47.1081663 C251.277553,45.6610635 250.9568,44.2139608 250.9568,42.445302 C250.9568,40.6766431 251.277553,39.0687624 252.080188,37.7824376 C252.882322,36.3353349 254.005208,35.3706165 255.449349,34.5666761 C256.89349,33.7627357 258.497757,33.4411796 260.102526,33.4411796 C261.706792,33.4411796 263.311059,33.7627357 264.7552,34.5666761 C266.199341,35.3706165 267.322227,36.4961631 268.124361,37.7824376 C268.766369,39.0687624 269.247749,40.5158651 269.247749,42.445302 Z M252.080188,119.302024 L252.080188,58.6847373 L268.124361,58.6847373 L268.124361,119.302024 L252.080188,119.302024 L252.080188,119.302024 Z M310.963702,74.6029176 L310.963702,74.7635451 C310.161569,74.4422902 309.198808,74.2811608 308.396173,74.1205333 C307.433914,73.9599059 306.631278,73.9599059 305.66902,73.9599059 C301.176471,73.9599059 297.806808,75.2459294 295.560533,77.9796078 C293.154133,80.7127843 292.030745,84.5718588 292.030745,89.5563294 L292.030745,119.302024 L275.986573,119.302024 L275.986573,58.6847373 L290.747231,58.6847373 L291.228612,67.8500392 C292.83338,64.6339765 294.7584,62.2220549 297.486055,60.4536471 C300.053082,58.6847373 303.10149,57.881098 306.631278,57.881098 C307.754667,57.881098 308.877553,58.0417255 309.840314,58.2023529 C310.321694,58.3634823 310.642447,58.3634823 310.963702,58.5241098 L310.963702,74.6029176 Z M317.381271,119.302024 L317.381271,33.7627357 L333.425945,33.7627357 L333.425945,66.4028863 C335.67222,63.5085804 338.239247,61.2572863 341.448282,59.4888784 C344.657318,57.881098 348.187106,56.9163294 352.198275,56.9163294 C356.208941,56.9163294 359.899357,57.7199686 363.268518,59.328251 C366.63818,60.9360314 369.525961,63.1868235 372.09349,66.0811294 C374.660518,68.9754353 376.585537,72.3521255 378.029678,76.0500706 C379.47382,79.9091451 380.115325,84.0894745 380.115325,88.5915608 C380.115325,93.0936471 379.313192,97.4351059 377.869553,101.293678 C376.425412,105.152753 374.339765,108.529443 371.772235,111.584376 C369.205208,114.478682 366.1568,116.890102 362.627012,118.498384 C359.097224,120.106165 355.406808,120.909804 351.235514,120.909804 C347.224345,120.909804 343.694557,120.106165 340.485522,118.337255 C337.276486,116.729475 334.709459,114.317553 332.623812,111.26262 L332.142431,119.141396 L317.381271,119.302024 Z M348.347231,106.599906 C351.235514,106.599906 353.802541,105.795765 356.208941,104.348612 C358.455216,102.740831 360.22011,100.650667 361.664251,98.0781176 C362.947765,95.5055686 363.589773,92.4506353 363.589773,89.0739451 C363.589773,85.6972549 362.947765,82.6423216 361.664251,80.0697725 C360.22011,77.4972235 358.455216,75.4070588 356.208941,73.7992784 C353.963169,72.1909961 351.235514,71.5479843 348.347231,71.5479843 C345.459451,71.5479843 342.892424,72.3521255 340.485522,73.7992784 C338.239247,75.4070588 336.474353,77.4972235 335.030212,80.0697725 C333.746698,82.6423216 333.105192,85.6972549 333.105192,89.0739451 C333.105192,92.4506353 333.746698,95.5055686 335.030212,98.0781176 C336.313726,100.650667 338.239247,102.740831 340.485522,104.348612 C342.892424,105.795765 345.459451,106.599906 348.347231,106.599906 Z M386.212643,119.302024 L386.212643,58.6847373 L400.973302,58.6847373 L401.454682,66.5635137 C403.219576,63.6692078 405.626478,61.4184157 408.674886,59.6495059 C411.723294,57.881098 415.253082,57.0769569 419.264251,57.0769569 C423.7568,57.0769569 427.607341,58.2023529 430.816376,60.2930196 C434.185537,62.3831843 436.753067,65.4381176 438.517961,69.2971922 C440.282855,73.1557647 441.245114,77.8184784 441.245114,83.1247059 L441.245114,119.462651 L425.200941,119.462651 L425.200941,85.2148706 C425.200941,81.0345412 424.23818,77.657851 422.312659,75.2459294 C420.387639,72.8345098 417.82011,71.5479843 414.450949,71.5479843 C412.044047,71.5479843 409.9584,72.0303686 408.032878,73.1557647 C406.267984,74.2811608 404.824345,75.7283137 403.700957,77.8189804 C402.578071,79.7480157 402.09669,82.1599372 402.09669,84.5718588 L402.09669,119.302024 L386.212643,119.302024 L386.212643,119.302024 Z M449.267451,119.302024 L449.267451,33.7627357 L465.312125,33.7627357 L465.312125,66.4028863 C467.5584,63.5085804 470.125427,61.2572863 473.334463,59.4888784 C476.543498,57.881098 480.073286,56.9163294 484.084455,56.9163294 C488.095624,56.9163294 491.785537,57.7199686 495.1552,59.328251 C498.524361,60.9360314 501.412141,63.1868235 503.978667,66.0811294 C506.548706,68.9754353 508.471216,72.3521255 509.916863,76.0500706 C511.36251,79.9091451 512,84.0894745 512,88.5915608 C512,93.0936471 511.201882,97.4351059 509.756235,101.293678 C508.310588,105.152753 506.227451,108.529443 503.657412,111.584376 C501.091388,114.478682 498.04298,116.890102 494.513192,118.498384 C490.983404,120.106165 487.292988,120.909804 483.121694,120.909804 C479.110525,120.909804 475.580737,120.106165 472.371702,118.337255 C469.162667,116.729475 466.595639,114.317553 464.509992,111.26262 L464.028612,119.141396 L449.267451,119.302024 Z M480.394039,106.599906 C483.28182,106.599906 485.849349,105.795765 488.255749,104.348612 C490.502024,102.740831 492.266918,100.650667 493.711059,98.0781176 C494.994573,95.5055686 495.63658,92.4506353 495.63658,89.0739451 C495.63658,85.6972549 494.994573,82.6423216 493.711059,80.0697725 C492.427545,77.4972235 490.502024,75.4070588 488.255749,73.7992784 C486.009475,72.1909961 483.28182,71.5479843 480.394039,71.5479843 C477.505757,71.5479843 474.938729,72.3521255 472.532329,73.7992784 C470.286055,75.4070588 468.521161,77.4972235 467.07702,80.0697725 C465.632878,82.6423216 465.151498,85.6972549 465.151498,89.0739451 C465.151498,92.4506353 465.793506,95.5055686 467.07702,98.0781176 C468.360533,100.650667 470.286055,102.740831 472.532329,104.348612 C474.938729,105.795765 477.345631,106.599906 480.394039,106.599906 Z" fill="#FF385C"></path>
    </g>
</svg>

<svg preserveAspectRatio="xMidYMid" viewBox="0 0 512 161" xmlns="http://www.w3.org/2000/svg">
  <g fill="#FF385C">
    <path d="M147.508 113.996c-.72-2.022-1.562-3.978-2.363-5.79a540.89 540.89 0 0 0-3.772-8.282l-.1-.215a1852.883 1852.883 0 0 0-35.53-72.668l-.529-1.024a472.824 472.824 0 0 0-3.926-7.505A48.76 48.76 0 0 0 95.51 9.62a26.897 26.897 0 0 0-9.248-7.098 26.951 26.951 0 0 0-22.776.003 26.895 26.895 0 0 0-9.246 7.1 48.97 48.97 0 0 0-5.773 8.89 480.76 480.76 0 0 0-3.962 7.574l-.49.95A1854.565 1854.565 0 0 0 8.484 99.71l-.162.35a547.21 547.21 0 0 0-3.709 8.145c-.8 1.811-1.641 3.766-2.362 5.793a35.508 35.508 0 0 0-1.916 17.308 34.195 34.195 0 0 0 6.924 16.173 34.282 34.282 0 0 0 14.055 10.606 34.861 34.861 0 0 0 13.151 2.544c1.416 0 2.831-.083 4.238-.247a43.244 43.244 0 0 0 16.172-5.456c6.523-3.665 12.966-9.036 20.004-16.711 7.038 7.675 13.48 13.046 20.004 16.71a43.225 43.225 0 0 0 16.172 5.457 36.67 36.67 0 0 0 4.238.247c4.507.01 8.973-.854 13.15-2.544a34.286 34.286 0 0 0 14.056-10.606 34.194 34.194 0 0 0 6.924-16.173 35.54 35.54 0 0 0-1.915-17.31Zm-72.629 8.367c-8.713-11.044-14.303-21.3-16.265-29.897a26.439 26.439 0 0 1-.56-9.857 16.106 16.106 0 0 1 2.593-6.739 17.952 17.952 0 0 1 6.302-5.15 17.996 17.996 0 0 1 15.862.002 17.95 17.95 0 0 1 6.301 5.15 16.115 16.115 0 0 1 2.593 6.74 26.447 26.447 0 0 1-.562 9.86c-1.964 8.597-7.553 18.85-16.264 29.891Zm64.368 7.489a23.911 23.911 0 0 1-4.841 11.307 23.971 23.971 0 0 1-9.828 7.416 25.051 25.051 0 0 1-12.336 1.614 32.586 32.586 0 0 1-12.317-4.207c-5.807-3.262-11.685-8.27-18.3-15.617 10.53-12.983 17.106-24.95 19.54-35.61a36.568 36.568 0 0 0 .7-13.7 26.272 26.272 0 0 0-4.274-10.985 28.21 28.21 0 0 0-9.989-8.427 28.256 28.256 0 0 0-25.444 0 28.2 28.2 0 0 0-9.99 8.425 26.272 26.272 0 0 0-4.274 10.981 36.583 36.583 0 0 0 .696 13.696c2.433 10.663 9.009 22.634 19.542 35.621-6.614 7.346-12.492 12.354-18.299 15.617a32.584 32.584 0 0 1-12.317 4.206 25.054 25.054 0 0 1-12.337-1.614 23.972 23.972 0 0 1-9.827-7.415 23.91 23.91 0 0 1-4.84-11.308 25.183 25.183 0 0 1 1.426-12.42c.574-1.616 1.247-3.2 2.08-5.084a542.847 542.847 0 0 1 3.639-7.991l.162-.352a1844.428 1844.428 0 0 1 35.336-72.266l.492-.955c1.26-2.443 2.562-4.97 3.876-7.411a39.647 39.647 0 0 1 4.539-7.087 16.65 16.65 0 0 1 25.631-.002 39.463 39.463 0 0 1 4.54 7.084c1.301 2.42 2.592 4.924 3.841 7.345l.53 1.027a1842.197 1842.197 0 0 1 35.335 72.267l.1.216c1.23 2.663 2.503 5.415 3.701 8.126.834 1.886 1.508 3.472 2.081 5.082a25.202 25.202 0 0 1 1.426 12.42Z"/>
    <path d="M209.24 121.07c-4.01 0-7.7-.803-11.07-2.411s-6.257-3.86-8.824-6.753c-2.567-2.894-4.492-6.27-5.937-9.969-1.444-3.859-2.086-8.04-2.086-12.541 0-4.502.803-8.844 2.247-12.703 1.444-3.858 3.53-7.235 6.097-10.29 2.567-2.894 5.615-5.306 9.145-6.914 3.53-1.608 7.22-2.412 11.392-2.412 4.01 0 7.54.804 10.75 2.573 3.209 1.608 5.776 4.02 7.861 7.074l.482-7.878h14.76v60.617h-14.76l-.482-8.843c-2.085 3.215-4.813 5.788-8.343 7.717-3.209 1.77-7.06 2.734-11.231 2.734Zm3.852-14.47c2.888 0 5.455-.804 7.862-2.251 2.246-1.608 4.01-3.698 5.455-6.27 1.283-2.573 1.925-5.628 1.925-9.005 0-3.377-.642-6.432-1.925-9.004-1.284-2.573-3.21-4.663-5.455-6.27-2.247-1.609-4.974-2.252-7.862-2.252s-5.455.804-7.862 2.251c-2.246 1.608-4.011 3.698-5.455 6.27-1.284 2.573-1.926 5.628-1.926 9.005 0 3.377.642 6.432 1.926 9.004 1.283 2.573 3.209 4.663 5.455 6.27 2.407 1.448 4.974 2.252 7.862 2.252Zm56.156-64.155c0 1.769-.321 3.377-1.124 4.663a9.273 9.273 0 0 1-3.369 3.216c-1.444.804-3.048 1.125-4.652 1.125-1.605 0-3.21-.321-4.654-1.125a9.273 9.273 0 0 1-3.369-3.216c-.802-1.447-1.123-2.894-1.123-4.663 0-1.768.32-3.376 1.123-4.663.802-1.447 1.925-2.411 3.37-3.215 1.443-.804 3.048-1.126 4.653-1.126 1.604 0 3.208.322 4.652 1.126a9.272 9.272 0 0 1 3.37 3.215c.641 1.287 1.123 2.734 1.123 4.663Zm-17.168 76.857V58.685h16.044v60.617H252.08Zm58.884-44.7v.162c-.802-.322-1.765-.483-2.568-.643-.962-.161-1.765-.161-2.727-.161-4.493 0-7.862 1.286-10.108 4.02-2.407 2.733-3.53 6.592-3.53 11.576v29.746h-16.044V58.685h14.76l.482 9.165c1.604-3.216 3.53-5.628 6.257-7.396 2.567-1.77 5.615-2.573 9.145-2.573 1.124 0 2.247.16 3.21.321.48.161.801.161 1.123.322v16.079Zm6.417 44.7v-85.54h16.045v32.64c2.246-2.893 4.813-5.145 8.022-6.913 3.21-1.608 6.74-2.573 10.75-2.573s7.701.804 11.07 2.412c3.37 1.608 6.258 3.859 8.825 6.753 2.568 2.894 4.493 6.271 5.937 9.97 1.444 3.858 2.085 8.038 2.085 12.54 0 4.503-.802 8.844-2.245 12.703-1.445 3.859-3.53 7.235-6.098 10.29-2.567 2.895-5.615 5.306-9.145 6.914-3.53 1.608-7.22 2.412-11.391 2.412-4.012 0-7.541-.804-10.75-2.573-3.21-1.608-5.777-4.02-7.862-7.074l-.482 7.878-14.76.161Zm30.966-12.702c2.889 0 5.456-.804 7.862-2.251 2.246-1.608 4.011-3.698 5.455-6.27 1.284-2.573 1.926-5.628 1.926-9.005 0-3.377-.642-6.432-1.926-9.004-1.444-2.573-3.209-4.663-5.455-6.27-2.246-1.609-4.973-2.252-7.862-2.252-2.888 0-5.455.804-7.861 2.251-2.247 1.608-4.012 3.698-5.456 6.27-1.283 2.573-1.925 5.628-1.925 9.005 0 3.377.642 6.432 1.925 9.004 1.284 2.573 3.21 4.663 5.456 6.27 2.406 1.448 4.973 2.252 7.861 2.252Zm37.866 12.702V58.685h14.76l.482 7.879c1.765-2.895 4.171-5.146 7.22-6.914 3.048-1.769 6.578-2.573 10.59-2.573 4.492 0 8.342 1.125 11.551 3.216 3.37 2.09 5.937 5.145 7.702 9.004 1.765 3.859 2.727 8.521 2.727 13.828v36.338h-16.044V85.215c0-4.18-.963-7.557-2.888-9.97-1.925-2.41-4.493-3.697-7.862-3.697-2.407 0-4.493.482-6.418 1.608-1.765 1.125-3.209 2.572-4.332 4.663-1.123 1.929-1.604 4.34-1.604 6.753v34.73h-15.884Zm63.054 0v-85.54h16.045v32.64c2.246-2.893 4.813-5.145 8.022-6.913 3.21-1.608 6.74-2.573 10.75-2.573 4.012 0 7.702.804 11.071 2.412 3.37 1.608 6.257 3.859 8.824 6.753 2.57 2.894 4.492 6.271 5.938 9.97 1.446 3.858 2.083 8.038 2.083 12.54 0 4.503-.798 8.844-2.244 12.703-1.445 3.859-3.529 7.235-6.099 10.29-2.566 2.895-5.614 5.306-9.144 6.914-3.53 1.608-7.22 2.412-11.391 2.412-4.011 0-7.541-.804-10.75-2.573-3.21-1.608-5.776-4.02-7.862-7.074l-.481 7.878-14.762.161Zm31.127-12.702c2.888 0 5.455-.804 7.862-2.251 2.246-1.608 4.01-3.698 5.455-6.27 1.284-2.573 1.926-5.628 1.926-9.005 0-3.377-.642-6.432-1.926-9.004-1.283-2.573-3.209-4.663-5.455-6.27-2.247-1.609-4.974-2.252-7.862-2.252s-5.455.804-7.862 2.251c-2.246 1.608-4.01 3.698-5.455 6.27-1.444 2.573-1.926 5.628-1.926 9.005 0 3.377.643 6.432 1.926 9.004 1.284 2.573 3.21 4.663 5.455 6.27 2.407 1.448 4.814 2.252 7.862 2.252Z"/>
  </g>
</svg>
